images/icons/about-us/certificate.svg

<svg width="50" height="50" viewBox="0 0 50 50" fill="none" xmlns="http://www.w3.org/2000/svg">
<g clip-path="url(#clip0_206_14216)">
<path d="M42.2974 30.9296C42.2863 28.1656 40.986 25.5652 38.7818 23.8984V6.14855C38.7853 6.12519 38.7853 6.10147 38.7818 6.0781C38.7707 5.9944 38.7469 5.91278 38.7114 5.83606V5.77363C38.6681 5.70632 38.6186 5.64354 38.5628 5.58599L32.9458 0.211118C32.8018 0.0761456 32.6121 0.000806839 32.4147 0.000110416H9.26564C8.67238 -0.0061674 8.10073 0.222975 7.67627 0.637311C7.25146 1.052 7.00837 1.61766 7 2.21096V36.9295C7.00837 37.5227 7.25146 38.0884 7.67627 38.5031C8.10072 38.9174 8.67233 39.1466 9.26564 39.1403H28.0781V49.2188C28.0997 49.5208 28.294 49.7835 28.5768 49.8923C28.8597 50.0011 29.1798 49.9366 29.3982 49.7266L33.4215 45.3125L37.4449 49.7499C37.5904 49.9069 37.7937 49.9972 38.0075 50C38.1006 49.9996 38.193 49.9839 38.2809 49.9533C38.5701 49.8343 38.7605 49.5546 38.7654 49.2421V38.0002C40.9884 36.3296 42.2967 33.7107 42.2967 30.9299L42.2974 30.9296ZM40.7816 30.9296C40.7816 32.8813 40.0063 34.7532 38.6262 36.1332C37.2461 37.5133 35.3739 38.2887 33.4222 38.2887C31.4705 38.2887 29.5986 37.5134 28.2186 36.1332C26.8385 34.7532 26.0628 32.8813 26.0628 30.9296C26.0628 28.9776 26.8384 27.1057 28.2186 25.7256C29.5986 24.3456 31.4705 23.5702 33.4222 23.5702C35.3739 23.5702 37.2461 24.3455 38.6262 25.7256C40.0063 27.1057 40.7816 28.9776 40.7816 30.9296ZM33.1721 2.53162L36.1408 5.39079H33.93C33.734 5.4037 33.5407 5.33708 33.3939 5.20664C33.2471 5.07586 33.1588 4.89171 33.1487 4.69534L33.1721 2.53162ZM8.51594 36.9064V2.21108C8.52152 2.01333 8.60871 1.82639 8.75659 1.69491C8.90446 1.56342 9.10013 1.49855 9.29719 1.51599H31.6801V4.68766C31.6903 5.28161 31.9351 5.84765 32.3613 6.26167C32.7871 6.67601 33.3595 6.9048 33.9534 6.89852H37.2894V22.9457C36.0921 22.3615 34.7779 22.0571 33.4456 22.055C31.015 22.0428 28.6862 23.0298 27.0044 24.7848C25.3227 26.5398 24.4361 28.9089 24.5519 31.3368C24.668 33.7649 25.7764 36.0385 27.6176 37.6251H9.26584C9.07402 37.6338 8.88672 37.5648 8.74582 37.4343C8.60492 37.3036 8.52191 37.1218 8.51598 36.93L8.51594 36.9064ZM29.6096 38.8985C30.5722 39.3669 31.6133 39.6529 32.6799 39.7422V43.8751L29.6096 47.2578V38.8985ZM37.2658 47.2578L34.18 43.8985V39.7655C35.2455 39.6752 36.2858 39.392 37.2502 38.9295L37.2658 47.2578Z" fill="#29B384"/>
<path d="M33.4228 25.6252C32.0151 25.6211 30.6633 26.1766 29.6654 27.1696C28.6676 28.1629 28.1053 29.5116 28.1025 30.9196C28.0998 32.3273 28.6567 33.6783 29.6508 34.6751C30.6448 35.6723 31.9942 36.2331 33.4019 36.2345C34.8099 36.2359 36.1603 35.6775 37.1564 34.6828C38.1521 33.6877 38.712 32.3376 38.712 30.93C38.7099 29.5262 38.1525 28.1807 37.1617 27.1867C36.1704 26.1926 34.8263 25.6315 33.4228 25.6252H33.4228ZM33.4228 34.719C32.4179 34.719 31.4543 34.3196 30.7435 33.6091C30.033 32.8983 29.6336 31.9347 29.6336 30.9299C29.6336 29.9247 30.033 28.961 30.7435 28.2506C31.4543 27.5398 32.4179 27.1408 33.4228 27.1408C34.4279 27.1408 35.3916 27.5398 36.102 28.2506C36.8128 28.961 37.2119 29.9247 37.2119 30.9299C37.2098 31.934 36.8101 32.8966 36.1 33.6066C35.3899 34.3167 34.4273 34.7168 33.4228 34.7189L33.4228 34.719Z" fill="#29B384"/>
<path d="M23.696 18.8128H12.321C11.9733 18.9 11.7295 19.2125 11.7295 19.5707C11.7295 19.9289 11.9733 20.2414 12.321 20.3286H23.696C23.9297 20.3872 24.1769 20.3345 24.3667 20.1866C24.5564 20.0387 24.6673 19.8113 24.6673 19.5707C24.6673 19.3301 24.5564 19.1027 24.3667 18.9548C24.1769 18.8069 23.9297 18.7542 23.696 18.8128V18.8128Z" fill="#29B384"/>
<path d="M12.322 26.8359H19.1812C19.5289 26.7488 19.7724 26.4366 19.7724 26.0781C19.7724 25.7199 19.5289 25.4074 19.1812 25.3202H12.322C11.9743 25.4074 11.7305 25.7199 11.7305 26.0781C11.7305 26.4366 11.9743 26.7487 12.322 26.8359Z" fill="#29B384"/>
<path d="M20.6656 31.8359H12.322C11.9743 31.9231 11.7305 32.2352 11.7305 32.5938C11.7305 32.9519 11.9743 33.2644 12.322 33.3516H20.6656C20.8989 33.4099 21.1465 33.3576 21.3363 33.2097C21.526 33.0615 21.6369 32.8344 21.6369 32.5938C21.6369 32.3531 21.526 32.1257 21.3363 31.9778C21.1465 31.8296 20.8989 31.7773 20.6656 31.8359V31.8359Z" fill="#29B384"/>
<path d="M12.322 7.30497H28.1656C28.5134 7.21777 28.7568 6.90562 28.7568 6.54709C28.7568 6.1889 28.5134 5.8764 28.1656 5.78921H12.322C11.9743 5.8764 11.7305 6.1889 11.7305 6.54709C11.7305 6.90562 11.9743 7.21777 12.322 7.30497Z" fill="#29B384"/>
<path d="M12.322 13.8208H28.1656C28.5134 13.7336 28.7568 13.4211 28.7568 13.0629C28.7568 12.7044 28.5134 12.3922 28.1656 12.3051H12.322C11.9743 12.3922 11.7305 12.7044 11.7305 13.0629C11.7305 13.4211 11.9743 13.7336 12.322 13.8208Z" fill="#29B384"/>
</g>
<defs>
<clipPath id="clip0_206_14216">
<rect width="50" height="50" fill="white"/>
</clipPath>
</defs>
</svg>

<svg xmlns="http://www.w3.org/2000/svg" width="50" height="50" fill="none"><g fill="#487ACD" clip-path="url(#a)"><path d="M42.297 30.93a8.86 8.86 0 0 0-3.515-7.032V6.148a.238.238 0 0 0 0-.07.84.84 0 0 0-.07-.242v-.062a1.207 1.207 0 0 0-.15-.188L32.947.211a.78.78 0 0 0-.531-.21H9.265A2.241 2.241 0 0 0 7 2.21v34.718a2.243 2.243 0 0 0 2.266 2.211h18.812V49.22a.781.781 0 0 0 1.32.508l4.024-4.414 4.023 4.437a.78.78 0 0 0 .836.203.782.782 0 0 0 .484-.71V38a8.845 8.845 0 0 0 3.532-7.07Zm-1.515 0a7.359 7.359 0 1 1-14.718 0 7.359 7.359 0 0 1 14.718 0Zm-7.61-28.398 2.969 2.859H33.93a.735.735 0 0 1-.781-.696l.023-2.163ZM8.516 36.906V2.211a.718.718 0 0 1 .781-.695H31.68v3.172a2.248 2.248 0 0 0 2.273 2.21h3.336v16.048a8.796 8.796 0 0 0-3.843-.891 8.86 8.86 0 0 0-5.828 15.57H9.266a.718.718 0 0 1-.75-.695v-.024Zm21.094 1.992a8.67 8.67 0 0 0 3.07.844v4.133l-3.07 3.383v-8.36Zm7.656 8.36-3.086-3.36v-4.133a8.823 8.823 0 0 0 3.07-.836l.016 8.329Z"/><path d="M33.423 25.625a5.305 5.305 0 1 0 5.289 5.305 5.313 5.313 0 0 0-5.29-5.305Zm0 9.094a3.79 3.79 0 1 1 3.789-3.79 3.796 3.796 0 0 1-3.79 3.79ZM23.696 18.813H12.321a.782.782 0 0 0 0 1.516h11.375a.782.782 0 1 0 0-1.516ZM12.322 26.836h6.86a.78.78 0 0 0 0-1.516h-6.86a.782.782 0 0 0 0 1.516ZM20.666 31.836h-8.344a.781.781 0 0 0 0 1.516h8.344a.783.783 0 0 0 .97-.758.781.781 0 0 0-.97-.758ZM12.322 7.305h15.844a.78.78 0 0 0 0-1.516H12.322a.782.782 0 0 0 0 1.516ZM12.322 13.82h15.844a.781.781 0 0 0 0-1.515H12.322a.781.781 0 0 0 0 1.516Z"/></g><defs><clipPath id="a"><path fill="#fff" d="M0 0h50v50H0z"/></clipPath></defs></svg>
